storage/app/icons/phosphoricons/light/hand-soap-light.svg

<svg xmlns="http://www.w3.org/2000/svg" fill="currentColor" viewBox="0 0 256 256"><path d="M182 98.48V88a30 30 0 0 0-30-30h-18V30h34a10 10 0 0 1 10 10 6 6 0 0 0 12 0 22 22 0 0 0-22-22h-64a6 6 0 0 0 0 12h18v28h-18a30 30 0 0 0-30 30v10.48A38.05 38.05 0 0 0 42 136v80a14 14 0 0 0 14 14h144a14 14 0 0 0 14-14v-80a38.05 38.05 0 0 0-32-37.52M104 70h48a18 18 0 0 1 18 18v10H86V88a18 18 0 0 1 18-18m98 146a2 2 0 0 1-2 2H56a2 2 0 0 1-2-2v-80a26 26 0 0 1 26-26h96a26 26 0 0 1 26 26Z"/></svg>

<svg xmlns="http://www.w3.org/2000/svg" viewBox="0 0 256 256" fill="currentColor"><path d="M182,98.48V88a30,30,0,0,0-30-30H134V30h34a10,10,0,0,1,10,10,6,6,0,0,0,12,0,22,22,0,0,0-22-22H104a6,6,0,0,0,0,12h18V58H104A30,30,0,0,0,74,88V98.48A38.05,38.05,0,0,0,42,136v80a14,14,0,0,0,14,14H200a14,14,0,0,0,14-14V136A38.05,38.05,0,0,0,182,98.48ZM104,70h48a18,18,0,0,1,18,18V98H86V88A18,18,0,0,1,104,70Zm98,146a2,2,0,0,1-2,2H56a2,2,0,0,1-2-2V136a26,26,0,0,1,26-26h96a26,26,0,0,1,26,26Z"/></svg>
